frontends/web/src/components/icon/assets/wbtc-white.svg

<?xml version="1.0" encoding="UTF-8" standalone="no"?>
<svg
   xmlns:dc="http://purl.org/dc/elements/1.1/"
   xmlns:cc="http://creativecommons.org/ns#"
   xmlns:rdf="http://www.w3.org/1999/02/22-rdf-syntax-ns#"
   xmlns:svg="http://www.w3.org/2000/svg"
   xmlns="http://www.w3.org/2000/svg"
   xmlns:sodipodi="http://sodipodi.sourceforge.net/DTD/sodipodi-0.dtd"
   xmlns:inkscape="http://www.inkscape.org/namespaces/inkscape"
   width="32"
   height="32"
   viewBox="0 0 32 32"
   version="1.1"
   id="svg4"
   sodipodi:docname="wbtc-white.svg"
   inkscape:version="1.0.1 (3bc2e813f5, 2020-09-07)">
  <metadata
     id="metadata10">
    <rdf:RDF>
      <cc:Work
         rdf:about="">
        <dc:format>image/svg+xml</dc:format>
        <dc:type
           rdf:resource="http://purl.org/dc/dcmitype/StillImage" />
      </cc:Work>
    </rdf:RDF>
  </metadata>
  <defs
     id="defs8" />
  <sodipodi:namedview
     pagecolor="#ffffff"
     bordercolor="#666666"
     borderopacity="1"
     objecttolerance="10"
     gridtolerance="10"
     guidetolerance="10"
     inkscape:pageopacity="0"
     inkscape:pageshadow="2"
     inkscape:window-width="1916"
     inkscape:window-height="1017"
     id="namedview6"
     showgrid="false"
     inkscape:zoom="20.48"
     inkscape:cx="19.814101"
     inkscape:cy="13.535232"
     inkscape:window-x="0"
     inkscape:window-y="0"
     inkscape:window-maximized="1"
     inkscape:current-layer="svg4"
     inkscape:document-rotation="0" />
  <path
     style="fill:#808080;stroke-width:0.125133"
     d="M 14.321088,31.023953 C 11.19419,30.527064 8.4247795,29.172226 6.2017011,27.051825 1.4625764,22.531587 0.19375142,15.652027 3.0166518,9.7825116 5.508518,4.6012989 10.673163,1.3253033 16.35224,1.3235895 c 3.891444,-0.00117 7.524598,1.4553653 10.279495,4.1210726 3.04133,2.9428677 4.613358,6.6203019 4.613358,10.7919989 0,4.201925 -1.57852,7.869956 -4.655904,10.818999 -2.011056,1.927185 -4.36772,3.172387 -7.190693,3.799381 -1.027496,0.228211 -4.067764,0.329353 -5.077408,0.168912 z m 5.424421,-1.547506 c 4.365801,-1.139276 7.927586,-4.367804 9.457507,-8.572615 1.109809,-3.050183 1.069179,-6.563963 -0.111408,-9.634621 C 28.434705,9.5606313 27.52696,8.1715488 26.145467,6.7608623 23.548904,4.1094281 20.622009,2.7707511 17.074968,2.6122799 13.180039,2.4382661 9.8187474,3.684821 7.0516237,6.3294967 5.7611219,7.5628925 4.9673099,8.6342637 4.2146107,10.158481 c -1.1690519,2.367334 -1.6395072,4.86676 -1.3814156,7.339161 0.6504572,6.231087 5.08877,11.037253 11.2845279,12.219803 1.422292,0.271465 4.104065,0.156624 5.627786,-0.240998 z m -5.47601,-0.639939 C 11.953638,28.414533 9.8174417,27.426544 8.2160165,26.036774 l -0.4373037,-0.379507 0.4195534,-0.437902 0.4195535,-0.437902 0.7630701,0.616756 c 0.9381882,0.758296 2.6877252,1.636846 4.0202992,2.018839 0.853899,0.244778 1.290854,0.286529 2.998653,0.286529 1.7078,0 2.144755,-0.04175 2.998654,-0.286529 1.332574,-0.381993 3.08211,-1.260543 4.020299,-2.018839 l 0.76307,-0.616756 0.407866,0.422088 c 0.489911,0.506994 0.477413,0.529186 -0.79247,1.407079 -2.904376,2.007853 -6.330949,2.808369 -9.527762,2.225878 z M 6.3580382,24.115287 C 5.5661979,23.124662 4.4321488,20.869315 4.0978835,19.62039 3.3214709,16.719462 3.5900036,13.561148 4.840671,10.88419 5.3181922,9.8620926 6.3971453,8.1808166 6.8245033,7.7928884 7.0294608,7.6068414 7.0750015,7.622987 7.4552705,8.0165165 L 7.865131,8.4406691 7.3165454,9.1162294 C 5.652854,11.164996 4.7032021,14.209102 4.8833689,16.915771 c 0.148234,2.22694 0.9927817,4.504326 2.323134,6.264505 L 7.8606032,24.045713 7.4281987,24.47943 6.9957942,24.913148 Z M 25.356633,24.470962 24.94263,24.04101 25.596216,23.177926 c 0.843442,-1.113793 1.65702,-2.839398 2.005815,-4.254341 0.405924,-1.646695 0.385372,-3.937871 -0.05003,-5.577328 -0.379584,-1.429294 -1.096686,-2.90934 -1.970962,-4.0679267 L 24.94263,8.4323118 25.348453,8.0123377 c 0.376482,-0.3896107 0.421793,-0.4054765 0.626728,-0.2194493 0.431248,0.3914583 1.508226,2.0733004 1.995429,3.1161246 2.062583,4.4148 1.322533,9.858394 -1.84566,13.576127 l -0.354314,0.415774 z m -11.2948,-1.37285 -0.03593,-1.159241 -1.419173,-0.03556 -1.419173,-0.03556 0.08314,-0.591055 c 0.142292,-1.011542 0.14377,-1.013368 0.853191,-1.05469 0.540213,-0.03147 0.671252,-0.08767 0.797052,-0.341864 0.105965,-0.214117 0.149839,-1.265884 0.148146,-3.551487 -0.0028,-3.798821 0.01988,-3.726365 -1.167232,-3.726365 H 11.21467 v -0.74784 -0.747835 l 1.405619,-0.03543 1.405619,-0.03543 0.03593,-1.159241 0.03592,-1.1592405 h 0.682504 0.682502 v 1.1279097 1.1279098 h 0.562248 0.562247 V 9.8451732 8.7172635 h 0.749664 0.749663 v 1.168909 1.1689085 l 0.831091,0.1536 c 1.63662,0.302475 2.386657,0.944777 2.598697,2.225423 0.118401,0.71509 -0.113332,1.473202 -0.623421,2.039524 l -0.428732,0.475994 0.488777,0.221077 c 1.000563,0.452561 1.381681,1.113637 1.381681,2.396627 0,1.893643 -1.163725,3.006773 -3.393881,3.246327 -0.829157,0.08907 -0.831627,0.0905 -0.913666,0.529129 -0.04524,0.241902 -0.06737,0.757542 -0.04917,1.145865 l 0.03309,0.706044 -0.711897,0.03758 -0.711897,0.03759 V 23.06583 21.861797 l -0.531011,0.03854 -0.531012,0.03854 -0.03593,1.159241 -0.03592,1.15924 h -0.677814 -0.677815 z m 3.642091,-2.97494 c 1.608819,-0.306032 2.257687,-1.142065 1.666065,-2.146641 -0.359525,-0.610476 -1.138635,-0.897279 -2.616599,-0.96321 l -1.290627,-0.05757 v 1.645631 1.64563 h 0.795082 c 0.437295,0 1.08803,-0.05572 1.446079,-0.123835 z m -0.222793,-4.654303 c 0.855447,-0.184017 1.355118,-0.662863 1.355118,-1.298641 0,-0.639023 -0.188997,-0.925722 -0.79098,-1.199874 -0.373941,-0.170299 -0.811787,-0.238017 -1.551719,-0.239993 l -1.030787,-0.0028 v 1.441218 1.441218 h 0.681042 c 0.374573,0 0.976369,-0.06353 1.337326,-0.141176 z M 23.400884,7.0698047 C 22.501688,6.3320747 20.740153,5.441126 19.460968,5.077076 18.262238,4.7359228 15.833424,4.6125541 14.515155,4.8258595 12.710567,5.1178547 10.985079,5.8564741 9.5340423,6.9580951 9.0767263,7.3052875 8.6598306,7.5893539 8.6076073,7.5893539 c -0.052223,0 -0.2600885,-0.1744655 -0.4619229,-0.3877012 L 7.7787128,6.8139517 8.321293,6.3423094 c 0.831359,-0.7226658 2.400441,-1.6257582 3.628682,-2.0885048 4.018094,-1.51384 8.546337,-0.8613123 12.036729,1.7345135 0.534487,0.397502 0.971796,0.7682981 0.971796,0.823991 0,0.055693 -0.18273,0.2740266 -0.406068,0.4851861 l -0.406067,0.3839264 z"
     id="path836" />
</svg>

<svg xmlns="http://www.w3.org/2000/svg" viewBox="0 0 32 32">
  <path fill="gray" d="M14.321 31.024c-3.1268-.497-5.8962-1.8518-8.1193-3.9722C1.4626 22.5316.1937 15.652 3.0167 9.7825c2.4918-5.1812 7.6565-8.4572 13.3355-8.459 3.8915-.001 7.5246 1.4555 10.2795 4.1212 3.0414 2.9428 4.6134 6.6203 4.6134 10.792 0 4.2019-1.5785 7.87-4.656 10.819-2.011 1.9271-4.3676 3.1723-7.1906 3.7993-1.0275.2283-4.0678.3294-5.0774.169zm5.4245-1.5476c4.3658-1.1392 7.9276-4.3678 9.4575-8.5726 1.1098-3.0502 1.0692-6.564-.1114-9.6346-.6569-1.7086-1.5646-3.0977-2.9461-4.5083-2.5966-2.6515-5.5235-3.9901-9.0705-4.1486-3.895-.174-7.2563 1.0725-10.0234 3.7172-1.2905 1.2334-2.0843 2.3048-2.837 3.829-1.169 2.3673-1.6395 4.8667-1.3814 7.3391.6505 6.2311 5.0888 11.0373 11.2845 12.2198 1.4223.2715 4.104.1567 5.6278-.241zm-5.476-.6399c-2.3159-.422-4.452-1.41-6.0535-2.7997l-.4373-.3795.4196-.438.4195-.4378.763.6167c.9383.7583 2.6878 1.6369 4.0204 2.0189.8539.2447 1.2908.2865 2.9986.2865 1.7078 0 2.1448-.0418 2.9987-.2865 1.3326-.382 3.0821-1.2606 4.0203-2.0189l.763-.6167.408.422c.4898.507.4773.5292-.7925 1.4071-2.9044 2.0079-6.331 2.8084-9.5278 2.226zM6.358 24.1153c-.7918-.9906-1.9259-3.246-2.2601-4.495-.7764-2.9008-.5079-6.0592.7428-8.7361.4775-1.0221 1.5564-2.7034 1.9838-3.0913.205-.186.2505-.17.6308.2236l.4098.4242-.5486.6755c-1.6636 2.0488-2.6133 5.0929-2.4331 7.7996.1482 2.227.9928 4.5043 2.3231 6.2645l.6541.8654-.4324.4337-.4324.4337Zm18.9986.3557-.414-.43.6536-.863c.8435-1.1139 1.657-2.8395 2.0058-4.2544.406-1.6467.3854-3.9379-.05-5.5773-.3796-1.4293-1.0967-2.9094-1.971-4.068l-.6384-.846.4059-.42c.3764-.3896.4217-.4054.6267-.2194.4312.3914 1.5082 2.0733 1.9954 3.1161 2.0626 4.4148 1.3225 9.8584-1.8457 13.5761l-.3543.4158zM14.0618 23.098l-.0359-1.1592-1.4192-.0356-1.4191-.0355.0831-.5911c.1423-1.0115.1438-1.0134.8532-1.0547.5402-.0315.6712-.0877.797-.3419.106-.214.1499-1.2658.1482-3.5514-.0028-3.7989.0199-3.7264-1.1672-3.7264h-.6872v-1.4957l1.4056-.0354 1.4056-.0354.036-1.1593.0359-1.1592h1.365v2.2558h1.1245V8.7173h1.4993v2.3378l.831.1536c1.6367.3025 2.3867.9448 2.5988 2.2254.1184.715-.1134 1.4732-.6234 2.0395l-.4288.476.4888.2211c1.0006.4526 1.3817 1.1136 1.3817 2.3966 0 1.8937-1.1637 3.0068-3.3939 3.2464-.8292.089-.8316.0905-.9137.529-.0452.242-.0673.7576-.0491 1.146l.033.706-.7118.0376-.712.0376v-2.4081l-.531.0385-.531.0386-.0359 1.1592-.036 1.1593h-1.3555zm3.6421-2.975c1.6088-.306 2.2577-1.142 1.666-2.1466-.3594-.6104-1.1385-.8972-2.6165-.9632l-1.2906-.0575v3.2912h.795c.4373 0 1.088-.0557 1.4461-.1238zm-.2228-4.6542c.8555-.184 1.3551-.6629 1.3551-1.2987 0-.639-.189-.9257-.791-1.1998-.3739-.1703-.8117-.238-1.5517-.24l-1.0307-.0028V15.61h.681c.3746 0 .9764-.0635 1.3373-.1412zm5.9198-8.3991c-.8992-.7377-2.6607-1.6287-3.94-1.9927-1.1987-.3412-3.6275-.4645-4.9457-.2512-1.8046.292-3.5301 1.0306-4.9812 2.1322-.4573.3472-.8742.6313-.9264.6313-.0522 0-.26-.1745-.462-.3877l-.3669-.3877.5426-.4717c.8314-.7227 2.4004-1.6257 3.6287-2.0885 4.018-1.5138 8.5463-.8613 12.0367 1.7345.5345.3975.9718.7683.9718.824 0 .0557-.1827.274-.406.4852l-.4061.384z"/>
</svg>
